src/lib/packages/icons/src/assets/line/presentation-dollar.svg

<svg width="24" height="24" viewBox="0 0 24 24" fill="none" xmlns="http://www.w3.org/2000/svg">
<path d="M21 2.25H3C2.586 2.25 2.25 2.586 2.25 3C2.25 3.414 2.586 3.75 3 3.75H3.75V13C3.75 15.418 5.082 16.75 7.5 16.75H11.25V18.599L8.58398 20.376C8.23898 20.606 8.14598 21.071 8.37598 21.416C8.60498 21.76 9.07002 21.854 9.41602 21.624L12 19.901L14.584 21.624C14.712 21.709 14.856 21.75 14.999 21.75C15.241 21.75 15.479 21.633 15.624 21.416C15.853 21.071 15.761 20.606 15.416 20.376L12.75 18.599V16.75H16.5C18.918 16.75 20.25 15.418 20.25 13V3.75H21C21.414 3.75 21.75 3.414 21.75 3C21.75 2.586 21.414 2.25 21 2.25ZM18.75 13C18.75 14.577 18.077 15.25 16.5 15.25H7.5C5.923 15.25 5.25 14.577 5.25 13V3.75H18.75V13ZM9.96503 9.26196C9.66603 8.87896 9.5 8.38796 9.5 7.88696C9.5 6.81196 10.251 5.91399 11.25 5.69299V5.5C11.25 5.086 11.586 4.75 12 4.75C12.414 4.75 12.75 5.086 12.75 5.5V5.69495C13.665 5.89695 14.378 6.66301 14.486 7.64001C14.532 8.05201 14.235 8.42302 13.823 8.46802C13.422 8.51002 13.041 8.21705 12.996 7.80505C12.954 7.42505 12.644 7.13904 12.275 7.13904H11.724C11.325 7.13904 10.999 7.47396 10.999 7.88696C10.999 8.05696 11.053 8.21995 11.151 8.34595C11.255 8.48195 11.392 8.57301 11.55 8.61401L12.817 8.93298C13.808 9.18798 14.499 10.084 14.499 11.113C14.499 11.71 14.269 12.273 13.849 12.697C13.544 13.008 13.163 13.215 12.749 13.306V13.499C12.749 13.913 12.413 14.249 11.999 14.249C11.585 14.249 11.249 13.913 11.249 13.499V13.304C10.334 13.102 9.621 12.336 9.513 11.359C9.467 10.947 9.76403 10.576 10.176 10.531C10.583 10.487 10.958 10.782 11.003 11.194C11.045 11.574 11.355 11.86 11.724 11.86H12.275C12.464 11.86 12.644 11.783 12.781 11.644C12.923 11.5 13 11.3121 13 11.1121C13 10.7681 12.772 10.469 12.448 10.385L11.181 10.066C10.698 9.94204 10.267 9.65696 9.96503 9.26196Z" fill="currentColor"/>
</svg>

<svg xmlns="http://www.w3.org/2000/svg" width="24" height="24" fill="none"><path fill="currentColor" d="M21 2.25H3a.75.75 0 0 0 0 1.5h.75V13c0 2.418 1.332 3.75 3.75 3.75h3.75v1.849l-2.666 1.777a.75.75 0 1 0 .832 1.248L12 19.901l2.584 1.723a.748.748 0 0 0 1.04-.208.75.75 0 0 0-.208-1.04l-2.666-1.777V16.75h3.75c2.418 0 3.75-1.332 3.75-3.75V3.75H21a.75.75 0 0 0 0-1.5ZM18.75 13c0 1.577-.673 2.25-2.25 2.25h-9c-1.577 0-2.25-.673-2.25-2.25V3.75h13.5V13ZM9.965 9.262A2.248 2.248 0 0 1 9.5 7.887c0-1.075.751-1.973 1.75-2.194V5.5a.75.75 0 0 1 1.5 0v.195a2.236 2.236 0 0 1 1.736 1.945.75.75 0 0 1-.663.828.757.757 0 0 1-.827-.663.735.735 0 0 0-.721-.666h-.551a.738.738 0 0 0-.725.748.749.749 0 0 0 .551.727l1.267.319a2.246 2.246 0 0 1 1.682 2.18c0 .597-.23 1.16-.65 1.584a2.194 2.194 0 0 1-1.1.609v.193a.75.75 0 0 1-1.5 0v-.195a2.236 2.236 0 0 1-1.736-1.945.75.75 0 1 1 1.49-.165c.042.38.352.666.721.666h.551a.708.708 0 0 0 .506-.216.751.751 0 0 0 .219-.532.747.747 0 0 0-.552-.727l-1.267-.319a2.234 2.234 0 0 1-1.216-.804Z"/></svg>
